X:6994
T:The Laird o' Drumblair
O:england
M:4/4
L:1/8
Q:128
K:A
|:A2c3/2A/ E3/2A/c3/2A/|a2g3/2a/ f3/2a/e3/2c/|(3def(3efg (3aed(3cBA|(3Bc
d(3cBA (3GFE(3dcB|
W: A A D A D A D E7
A2c3/2A/ E3/2A/c3/2A/|a2g3/2a/ f3/2a/e3/2c/|(3def(3efg (3aed(3cBA|(3GFE(
3dcB A2-Ag|
W: A A D A D A E7 A
a2e3/2a/ c3/2a/A3/2a/|c/B/Ae3/2g/ a3/2A/c/a3/2|b2f3/2b/ d3/2b/B3/2b/|d/c
/Bf3/2B/ b3/2B/d/b3/2|
A2A2 z4|z8|B2B2 z4|z8|
W: A A Bm Bm
a2e3/2a/ c3/2a/A3/2a/|c/B/Ae3/2g/ a3/2e/c3/2A/|(3def(3efg (3aed(3cBA|(3G
FE(3dcB A2-AE:|(3GFE(3DCB, A,2-E2-|
A2A2 z4|
W: A A D A E7 A E7 A E7


